src/components/icon1.svg

<svg
xmlns="http://www.w3.org/2000/svg"
xml:space="preserve"
version="1.1"
style="shape-rendering:geometricPrecision; text-rendering:geometricPrecision; image-rendering:optimizeQuality; fill-rule:evenodd; clip-rule:evenodd"
viewBox="0 0 26.3 65.33"
xmlns:xlink="http://www.w3.org/1999/xlink"
>
<defs></defs>
<g id="Layer_x0020_1">
  <metadata id="CorelCorpID_0Corel-Layer"></metadata>
  <path
    class="fil0"
    d="M13.98 52.87c0.37,-0.8 0.6,-1.74 0.67,-2.74 1.01,1.1 2.23,2.68 1.24,3.87 -0.22,0.26 -0.41,0.61 -0.59,0.97 -2.95,5.89 3.44,10.87 2.98,0.78 0.29,0.23 0.73,0.82 1.03,1.18 0.33,0.4 0.7,0.77 1,1.15 0.29,0.64 -0.09,2.68 1.77,4.91 5.42,6.5 5.67,-2.38 0.47,-4.62 -0.41,-0.18 -0.95,-0.26 -1.28,-0.54 -0.5,-0.41 -1.23,-1.37 -1.66,-1.9 0.03,-0.43 -0.17,-0.13 0.11,-0.33 4.98,1.72 8.4,-1.04 2.38,-3.16 -1.98,-0.7 -2.9,-0.36 -4.72,0.16 -0.63,-0.58 -2.38,-3.82 -2.82,-4.76 1.21,0.56 1.72,1.17 3.47,1.3 6.5,0.5 2.31,-4.21 -2.07,-4.04 -1.12,0.04 -1.62,0.37 -2.49,0.62l-1.25 -3.11c0.03,-0.26 0.01,-0.18 0.1,-0.28 1.35,0.86 1.43,1 3.25,1.45 2.35,0.15 3.91,-0.15 1.75,-2.4 -1.22,-1.27 -2.43,-2.04 -4.22,-2.23l-2.08 0.13c-0.35,-0.58 -0.99,-2.59 -1.12,-3.3l-0.01 -0.01 -0 -0 -0 -0 -0 -0 -0 -0 -0 -0 -0 -0 -0 -0 -0 -0 -0 -0 -0 -0 -0 -0 -0 -0 -0 -0 -0 -0 -0 -0c-0.24,-0.36 1.88,1.31 2.58,1.57 1.32,0.49 2.6,0.33 3.82,0 -0.37,-1.08 -1.17,-2.31 -2.13,-3.11 -1.79,-1.51 -3.07,-1.41 -5.22,-1.38l-0.93 -4.07c0.41,-0.57 1.41,0.9 2.82,1.36 0.96,0.31 1.94,0.41 3,0.14 2,-0.52 -2.25,-4.4 -4.53,-4.71 -0.7,-0.1 -1.23,-0.04 -1.92,-0.03 -0.46,-0.82 -0.68,-3.61 -0.92,-4.74 0.8,0.88 1.15,1.54 2.25,2.23 0.8,0.5 1.58,0.78 2.57,0.85 2.54,0.18 -0.1,-3.47 -0.87,-4.24 -1.05,-1.05 -2.34,-1.59 -4.32,-1.78l-0.33 -3.49c0.83,0.67 1.15,1.48 2.3,2.16 1.07,0.63 2.02,0.89 3.58,0.79 0.15,-1.34 -1.07,-3.39 -2.03,-4.3 -1.05,-0.99 -2.08,-1.47 -3.91,-1.68l-0.07 -3.27 0.32 -0.65c0.44,0.88 1.4,1.74 2.24,2.22 0.69,0.39 2.4,1.1 3.44,0.67 0.31,-1.92 -1.84,-4.49 -3.5,-5.29 -0.81,-0.39 -1.61,-0.41 -2.18,-0.68 -0.12,-1.28 0.27,-3.23 0.37,-4.55l-0.89 0c-0.06,1.28 -0.35,3.12 -0.34,4.31 -0.44,0.45 -0.37,0.42 -0.96,0.64 -3.88,1.49 -4.86,6.38 -3.65,7.34 1.42,-0.31 3.69,-2.14 4.16,-3.66 0.23,0.5 0.1,2.36 0.05,3.05 -1.23,0.4 -2.19,1.05 -2.92,1.82 -1.17,1.24 -2.36,4.04 -1.42,5.69 1.52,0.09 4.07,-2.49 4.49,-4.07l0.29 3.18c-2.81,0.96 -5.01,3.68 -4.18,7.43 2.06,-0.09 3.78,-2.56 4.66,-4.15 0.23,1.45 0.67,3.06 0.74,4.52 -1.26,0.93 -2.37,1.8 -2.97,3.55 -0.48,1.4 -0.49,3.72 0.19,4.55 0.59,0.71 2.06,-1.17 2.42,-1.67 1,-1.35 0.81,-1.92 1.29,-2.46l0.7 3.44c-0.49,0.45 -0.94,0.55 -1.5,1.19 -1.93,2.23 -2.14,4.33 -1.01,6.92 0.72,0.09 2.04,-1.4 2.49,-2.06 0.65,-0.95 0.79,-1.68 1.14,-2.88l0.97 2.92c-0.2,0.55 -1.84,1.32 -2.6,3.62 -0.54,1.62 -0.37,3.86 0.67,4.93 0.58,-0.09 1.85,-1.61 2.2,-2.19 0.66,-1.09 0.66,-1.64 1,-2.93l1.32 3.18c-0.23,0.72 -1.63,1.72 -1.82,4.18 -0.17,2.16 1.11,6.88 3.13,2.46zm-4.09 -16.89l-0 -0 -0 -0 -0 -0 -0 -0 -0 -0 -0 -0 -0 -0 -0 -0 -0 -0 -0 -0 -0 -0 -0 -0 -0 -0 -0 -0 0.01 0.01z"
  ></path>
</g>
</svg>

<svg width="27" height="66" viewBox="0 0 27 66" fill="none" xmlns="http://www.w3.org/2000/svg">
<g id="icon1 1" clip-path="url(#clip0_1_2)">
<g id="Layer_x0020_1">
<path id="Vector" fill-rule="evenodd" clip-rule="evenodd" d="M13.98 52.87C14.35 52.07 14.58 51.13 14.65 50.13C15.66 51.23 16.88 52.81 15.89 54C15.67 54.26 15.48 54.61 15.3 54.97C12.35 60.86 18.74 65.84 18.28 55.75C18.57 55.98 19.01 56.57 19.31 56.93C19.64 57.33 20.01 57.7 20.31 58.08C20.6 58.72 20.22 60.76 22.08 62.99C27.5 69.49 27.75 60.61 22.55 58.37C22.14 58.19 21.6 58.11 21.27 57.83C20.77 57.42 20.04 56.46 19.61 55.93C19.64 55.5 19.44 55.8 19.72 55.6C24.7 57.32 28.12 54.56 22.1 52.44C20.12 51.74 19.2 52.08 17.38 52.6C16.75 52.02 15 48.78 14.56 47.84C15.77 48.4 16.28 49.01 18.03 49.14C24.53 49.64 20.34 44.93 15.96 45.1C14.84 45.14 14.34 45.47 13.47 45.72L12.22 42.61C12.25 42.35 12.23 42.43 12.32 42.33C13.67 43.19 13.75 43.33 15.57 43.78C17.92 43.93 19.48 43.63 17.32 41.38C16.1 40.11 14.89 39.34 13.1 39.15L11.02 39.28C10.67 38.7 10.03 36.69 9.9 35.98L9.89 35.97C9.65 35.61 11.77 37.28 12.47 37.54C13.79 38.03 15.07 37.87 16.29 37.54C15.92 36.46 15.12 35.23 14.16 34.43C12.37 32.92 11.09 33.02 8.94 33.05L8.01 28.98C8.42 28.41 9.42 29.88 10.83 30.34C11.79 30.65 12.77 30.75 13.83 30.48C15.83 29.96 11.58 26.08 9.3 25.77C8.6 25.67 8.07 25.73 7.38 25.74C6.92 24.92 6.7 22.13 6.46 21C7.26 21.88 7.61 22.54 8.71 23.23C9.51 23.73 10.29 24.01 11.28 24.08C13.82 24.26 11.18 20.61 10.41 19.84C9.36 18.79 8.07 18.25 6.09 18.06L5.76 14.57C6.59 15.24 6.91 16.05 8.06 16.73C9.13 17.36 10.08 17.62 11.64 17.52C11.79 16.18 10.57 14.13 9.61 13.22C8.56 12.23 7.53 11.75 5.7 11.54L5.63 8.27L5.95 7.62C6.39 8.5 7.35 9.36 8.19 9.84C8.88 10.23 10.59 10.94 11.63 10.51C11.94 8.59 9.79 6.02 8.13 5.22C7.32 4.83 6.52 4.81 5.95 4.54C5.83 3.26 6.22 1.31 6.32 -0.00999832H5.43C5.37 1.27 5.08 3.11 5.09 4.3C4.65 4.75 4.72 4.72 4.13 4.94C0.249997 6.43 -0.730003 11.32 0.479997 12.28C1.9 11.97 4.17 10.14 4.64 8.62C4.87 9.12 4.74 10.98 4.69 11.67C3.46 12.07 2.5 12.72 1.77 13.49C0.599997 14.73 -0.590003 17.53 0.349997 19.18C1.87 19.27 4.42 16.69 4.84 15.11L5.13 18.29C2.32 19.25 0.119997 21.97 0.949997 25.72C3.01 25.63 4.73 23.16 5.61 21.57C5.84 23.02 6.28 24.63 6.35 26.09C5.09 27.02 3.98 27.89 3.38 29.64C2.9 31.04 2.89 33.36 3.57 34.19C4.16 34.9 5.63 33.02 5.99 32.52C6.99 31.17 6.8 30.6 7.28 30.06L7.98 33.5C7.49 33.95 7.04 34.05 6.48 34.69C4.55 36.92 4.34 39.02 5.47 41.61C6.19 41.7 7.51 40.21 7.96 39.55C8.61 38.6 8.75 37.87 9.1 36.67L10.07 39.59C9.87 40.14 8.23 40.91 7.47 43.21C6.93 44.83 7.1 47.07 8.14 48.14C8.72 48.05 9.99 46.53 10.34 45.95C11 44.86 11 44.31 11.34 43.02L12.66 46.2C12.43 46.92 11.03 47.92 10.84 50.38C10.67 52.54 11.95 57.26 13.97 52.84L13.98 52.87Z" fill="#4EDF54"/>
</g>
</g>
<defs>
<clipPath id="clip0_1_2">
<rect width="26.3" height="65.33" fill="white"/>
</clipPath>
</defs>
</svg>
